img/svg/mail.svg

<svg xmlns="http://www.w3.org/2000/svg" preserveAspectRatio="xMidYMid" width="24" height="18" viewBox="0 0 24 18"><defs><style>.cls-2 { fill: #ffffff; }</style></defs><path d="M21.5 18h-19c-1.378 0-2.5-1.122-2.5-2.5v-13c0-1.378 1.122-2.5 2.5-2.5h19c1.378 0 2.5 1.122 2.5 2.5v13c0 1.378-1.122 2.5-2.5 2.5zm1.5-15.5c0-.827-.673-1.5-1.5-1.5h-19c-.827 0-1.5.673-1.5 1.5v13c0 .827.673 1.5 1.5 1.5h19c.827 0 1.5-.673 1.5-1.5v-13zm-2.147 12.353c-.097.098-.225.147-.353.147-.128 0-.256-.049-.354-.147l-4.911-4.911-.368.397c-.707.769-1.637 1.193-2.617 1.193s-1.91-.424-2.618-1.194l-.37-.4-5.426 4.932c-.096.087-.216.13-.336.13-.136 0-.271-.055-.37-.164-.186-.204-.171-.52.034-.706l5.42-4.927-4.951-5.364c-.188-.203-.175-.519.028-.706.203-.188.519-.175.706.028l6 6.5c.517.562 1.186.871 1.883.871.697 0 1.366-.309 1.882-.87l6.001-6.501c.187-.203.503-.216.706-.028.203.187.216.503.028.706l-4.954 5.367 4.94 4.94c.196.196.196.512 0 .707z" id="path-1" class="cls-2" fill-rule="evenodd"/></svg>

<svg xmlns="http://www.w3.org/2000/svg" xmlns:xlink="http://www.w3.org/1999/xlink" preserveAspectRatio="xMidYMid" width="24" height="18" viewBox="0 0 24 18">
  <defs>
    <style>

      .cls-2 {
        fill: #ffffff;
      }
    </style>
  </defs>
  <path d="M21.500,18.000 C21.500,18.000 2.500,18.000 2.500,18.000 C1.122,18.000 -0.000,16.878 -0.000,15.500 C-0.000,15.500 -0.000,2.500 -0.000,2.500 C-0.000,1.122 1.122,-0.000 2.500,-0.000 C2.500,-0.000 21.500,-0.000 21.500,-0.000 C22.878,-0.000 24.000,1.122 24.000,2.500 C24.000,2.500 24.000,15.500 24.000,15.500 C24.000,16.878 22.878,18.000 21.500,18.000 ZM23.000,2.500 C23.000,1.673 22.327,1.000 21.500,1.000 C21.500,1.000 2.500,1.000 2.500,1.000 C1.673,1.000 1.000,1.673 1.000,2.500 C1.000,2.500 1.000,15.500 1.000,15.500 C1.000,16.327 1.673,17.000 2.500,17.000 C2.500,17.000 21.500,17.000 21.500,17.000 C22.327,17.000 23.000,16.327 23.000,15.500 C23.000,15.500 23.000,2.500 23.000,2.500 ZM20.853,14.853 C20.756,14.951 20.628,15.000 20.500,15.000 C20.372,15.000 20.244,14.951 20.146,14.853 C20.146,14.853 15.235,9.942 15.235,9.942 C15.235,9.942 14.867,10.339 14.867,10.339 C14.160,11.108 13.230,11.532 12.250,11.532 C11.270,11.532 10.340,11.108 9.632,10.338 C9.632,10.338 9.262,9.938 9.262,9.938 C9.262,9.938 3.836,14.870 3.836,14.870 C3.740,14.957 3.620,15.000 3.500,15.000 C3.364,15.000 3.229,14.945 3.130,14.836 C2.944,14.632 2.959,14.316 3.164,14.130 C3.164,14.130 8.584,9.203 8.584,9.203 C8.584,9.203 3.633,3.839 3.633,3.839 C3.445,3.636 3.458,3.320 3.661,3.133 C3.864,2.945 4.180,2.958 4.367,3.161 C4.367,3.161 10.367,9.661 10.367,9.661 C10.884,10.223 11.553,10.532 12.250,10.532 C12.947,10.532 13.616,10.223 14.132,9.662 C14.132,9.662 20.133,3.161 20.133,3.161 C20.320,2.958 20.636,2.945 20.839,3.133 C21.042,3.320 21.055,3.636 20.867,3.839 C20.867,3.839 15.913,9.206 15.913,9.206 C15.913,9.206 20.853,14.146 20.853,14.146 C21.049,14.342 21.049,14.658 20.853,14.853 Z" id="path-1" class="cls-2" fill-rule="evenodd"/>
</svg>
